docs/local/img/sprites/tg.svg

<svg width="12" height="11" viewBox="0 0 12 11" xmlns="http://www.w3.org/2000/svg">
<path d="M11.8004 0.56153L9.99714 9.97556C9.99714 9.97556 9.74483 10.6283 9.05173 10.3152L4.89114 7.01174L4.87184 7.00201C5.43384 6.47943 9.79183 2.42179 9.9823 2.23787C10.2771 1.95301 10.0941 1.78343 9.75176 1.99861L3.31447 6.23198L0.830974 5.36665C0.830974 5.36665 0.440145 5.22269 0.402546 4.90966C0.364453 4.59611 0.843836 4.42653 0.843836 4.42653L10.9683 0.313564C10.9683 0.313564 11.8004 -0.0650467 11.8004 0.56153V0.56153Z"/>
</svg>

<svg width="12" height="11" viewBox="0 0 12 11" xmlns="http://www.w3.org/2000/svg"><path d="M11.8.562L9.997 9.976s-.252.652-.945.34l-4.16-3.304-.02-.01c.562-.523 4.92-4.58 5.11-4.764.295-.285.112-.455-.23-.24L3.314 6.233.831 5.367s-.39-.144-.428-.457c-.039-.314.44-.483.44-.483L10.969.314s.832-.379.832.248z"/></svg>
